X: 36730
T: Sheep In The Boat, The
R: jig
M: 6/8
K: Edorian
|:BEF GFE|FEF d2f|edB BAF|d2e dBA|
BEF GFE|FEF d2f|edB {d}BAF|AFE E2 A:|
|:Bee efe|dBcd2f|edB BAF|AFE FED|
[1 Bee efe|dBcd2f|edB BAF|AFE E2A:|
[2 B,EF GFE|FEF def|edB {d}BAF|AFE EFA||

